src/assets/upper_left.svg

<svg width="167" height="167" viewBox="0 0 167 167" fill="none" xmlns="http://www.w3.org/2000/svg">
<path d="M147.696 8.84473H8.81201V156.442" stroke="url(#paint0_linear_359_1213)" stroke-width="2" stroke-miterlimit="10" stroke-linecap="round"/>
<path d="M16.6204 16.6443L49.5297 49.5911" stroke="url(#paint1_linear_359_1213)" stroke-miterlimit="10" stroke-linecap="round"/>
<path d="M16.6204 16.6443L59.8973 41.0881" stroke="url(#paint2_linear_359_1213)" stroke-miterlimit="10" stroke-linecap="round"/>
<path d="M16.6204 16.6443L70.847 32.8765" stroke="url(#paint3_linear_359_1213)" stroke-miterlimit="10" stroke-linecap="round"/>
<path d="M16.6204 16.6443L84.4464 24.7654" stroke="url(#paint4_linear_359_1213)" stroke-miterlimit="10" stroke-linecap="round"/>
<path d="M16.6204 16.6443L40.7378 59.7526" stroke="url(#paint5_linear_359_1213)" stroke-miterlimit="10" stroke-linecap="round"/>
<path d="M16.6204 16.6443L32.2571 71.8137" stroke="url(#paint6_linear_359_1213)" stroke-miterlimit="10" stroke-linecap="round"/>
<path d="M16.6204 16.6443L24.6696 84.7291" stroke="url(#paint7_linear_359_1213)" stroke-miterlimit="10" stroke-linecap="round"/>
<path d="M8.81201 165.357V149.698C8.81201 71.904 71.8005 8.84473 149.502 8.84473H165.119" stroke="url(#paint8_linear_359_1213)" stroke-width="2" stroke-miterlimit="10" stroke-linecap="round"/>
<path d="M1.00366 28.444V157.538L8.81198 165.357L16.6203 157.538V16.6443H12.7864C6.28281 16.6443 1.00366 21.921 1.00366 28.444Z" stroke="url(#paint9_linear_359_1213)" stroke-width="2" stroke-miterlimit="10" stroke-linecap="round"/>
<path d="M165.119 8.84477L157.311 1.00507H28.4031C21.8995 1.00507 16.6204 6.29184 16.6204 12.8048V16.6443H157.311L165.119 8.84477Z" stroke="url(#paint10_linear_359_1213)" stroke-width="2" stroke-miterlimit="10" stroke-linecap="round"/>
<defs>
<linearGradient id="paint0_linear_359_1213" x1="7.80817" y1="82.6406" x2="148.703" y2="82.6406" gradientUnits="userSpaceOnUse">
<stop stop-color="#666666"/>
<stop offset="0.1508" stop-color="#8D8D8D"/>
<stop offset="0.1849" stop-color="#7C7C7C"/>
<stop offset="0.2399" stop-color="#686868"/>
<stop offset="0.2942" stop-color="#5B5B5B"/>
<stop offset="0.3466" stop-color="#575757"/>
<stop offset="0.4374" stop-color="#5C5C5C"/>
<stop offset="0.5405" stop-color="#696969"/>
<stop offset="0.6491" stop-color="#808080"/>
<stop offset="0.7169" stop-color="#929292"/>
<stop offset="0.7695" stop-color="#8B8B8B"/>
<stop offset="0.845" stop-color="#787878"/>
<stop offset="0.9338" stop-color="#595959"/>
<stop offset="0.9762" stop-color="#484848"/>
</linearGradient>
<linearGradient id="paint1_linear_359_1213" x1="16.1185" y1="33.1172" x2="50.0291" y2="33.1172" gradientUnits="userSpaceOnUse">
<stop stop-color="#666666"/>
<stop offset="0.1508" stop-color="#8D8D8D"/>
<stop offset="0.1849" stop-color="#7C7C7C"/>
<stop offset="0.2399" stop-color="#686868"/>
<stop offset="0.2942" stop-color="#5B5B5B"/>
<stop offset="0.3466" stop-color="#575757"/>
<stop offset="0.4374" stop-color="#5C5C5C"/>
<stop offset="0.5405" stop-color="#696969"/>
<stop offset="0.6491" stop-color="#808080"/>
<stop offset="0.7169" stop-color="#929292"/>
<stop offset="0.7695" stop-color="#8B8B8B"/>
<stop offset="0.845" stop-color="#787878"/>
<stop offset="0.9338" stop-color="#595959"/>
<stop offset="0.9762" stop-color="#484848"/>
</linearGradient>
<linearGradient id="paint2_linear_359_1213" x1="16.1185" y1="28.8653" x2="60.3958" y2="28.8653" gradientUnits="userSpaceOnUse">
<stop stop-color="#666666"/>
<stop offset="0.1508" stop-color="#8D8D8D"/>
<stop offset="0.1849" stop-color="#7C7C7C"/>
<stop offset="0.2399" stop-color="#686868"/>
<stop offset="0.2942" stop-color="#5B5B5B"/>
<stop offset="0.3466" stop-color="#575757"/>
<stop offset="0.4374" stop-color="#5C5C5C"/>
<stop offset="0.5405" stop-color="#696969"/>
<stop offset="0.6491" stop-color="#808080"/>
<stop offset="0.7169" stop-color="#929292"/>
<stop offset="0.7695" stop-color="#8B8B8B"/>
<stop offset="0.845" stop-color="#787878"/>
<stop offset="0.9338" stop-color="#595959"/>
<stop offset="0.9762" stop-color="#484848"/>
</linearGradient>
<linearGradient id="paint3_linear_359_1213" x1="16.1185" y1="24.761" x2="71.3462" y2="24.761" gradientUnits="userSpaceOnUse">
<stop stop-color="#666666"/>
<stop offset="0.1508" stop-color="#8D8D8D"/>
<stop offset="0.1849" stop-color="#7C7C7C"/>
<stop offset="0.2399" stop-color="#686868"/>
<stop offset="0.2942" stop-color="#5B5B5B"/>
<stop offset="0.3466" stop-color="#575757"/>
<stop offset="0.4374" stop-color="#5C5C5C"/>
<stop offset="0.5405" stop-color="#696969"/>
<stop offset="0.6491" stop-color="#808080"/>
<stop offset="0.7169" stop-color="#929292"/>
<stop offset="0.7695" stop-color="#8B8B8B"/>
<stop offset="0.845" stop-color="#787878"/>
<stop offset="0.9338" stop-color="#595959"/>
<stop offset="0.9762" stop-color="#484848"/>
</linearGradient>
<linearGradient id="paint4_linear_359_1213" x1="16.1185" y1="20.7015" x2="84.9444" y2="20.7015" gradientUnits="userSpaceOnUse">
<stop stop-color="#666666"/>
<stop offset="0.1508" stop-color="#8D8D8D"/>
<stop offset="0.1849" stop-color="#7C7C7C"/>
<stop offset="0.2399" stop-color="#686868"/>
<stop offset="0.2942" stop-color="#5B5B5B"/>
<stop offset="0.3466" stop-color="#575757"/>
<stop offset="0.4374" stop-color="#5C5C5C"/>
<stop offset="0.5405" stop-color="#696969"/>
<stop offset="0.6491" stop-color="#808080"/>
<stop offset="0.7169" stop-color="#929292"/>
<stop offset="0.7695" stop-color="#8B8B8B"/>
<stop offset="0.845" stop-color="#787878"/>
<stop offset="0.9338" stop-color="#595959"/>
<stop offset="0.9762" stop-color="#484848"/>
</linearGradient>
<linearGradient id="paint5_linear_359_1213" x1="16.1185" y1="38.1953" x2="41.2355" y2="38.1953" gradientUnits="userSpaceOnUse">
<stop stop-color="#666666"/>
<stop offset="0.1508" stop-color="#8D8D8D"/>
<stop offset="0.1849" stop-color="#7C7C7C"/>
<stop offset="0.2399" stop-color="#686868"/>
<stop offset="0.2942" stop-color="#5B5B5B"/>
<stop offset="0.3466" stop-color="#575757"/>
<stop offset="0.4374" stop-color="#5C5C5C"/>
<stop offset="0.5405" stop-color="#696969"/>
<stop offset="0.6491" stop-color="#808080"/>
<stop offset="0.7169" stop-color="#929292"/>
<stop offset="0.7695" stop-color="#8B8B8B"/>
<stop offset="0.845" stop-color="#787878"/>
<stop offset="0.9338" stop-color="#595959"/>
<stop offset="0.9762" stop-color="#484848"/>
</linearGradient>
<linearGradient id="paint6_linear_359_1213" x1="16.1185" y1="44.2264" x2="32.7566" y2="44.2264" gradientUnits="userSpaceOnUse">
<stop stop-color="#666666"/>
<stop offset="0.1508" stop-color="#8D8D8D"/>
<stop offset="0.1849" stop-color="#7C7C7C"/>
<stop offset="0.2399" stop-color="#686868"/>
<stop offset="0.2942" stop-color="#5B5B5B"/>
<stop offset="0.3466" stop-color="#575757"/>
<stop offset="0.4374" stop-color="#5C5C5C"/>
<stop offset="0.5405" stop-color="#696969"/>
<stop offset="0.6491" stop-color="#808080"/>
<stop offset="0.7169" stop-color="#929292"/>
<stop offset="0.7695" stop-color="#8B8B8B"/>
<stop offset="0.845" stop-color="#787878"/>
<stop offset="0.9338" stop-color="#595959"/>
<stop offset="0.9762" stop-color="#484848"/>
</linearGradient>
<linearGradient id="paint7_linear_359_1213" x1="16.1185" y1="50.6843" x2="25.169" y2="50.6843" gradientUnits="userSpaceOnUse">
<stop stop-color="#666666"/>
<stop offset="0.1508" stop-color="#8D8D8D"/>
<stop offset="0.1849" stop-color="#7C7C7C"/>
<stop offset="0.2399" stop-color="#686868"/>
<stop offset="0.2942" stop-color="#5B5B5B"/>
<stop offset="0.3466" stop-color="#575757"/>
<stop offset="0.4374" stop-color="#5C5C5C"/>
<stop offset="0.5405" stop-color="#696969"/>
<stop offset="0.6491" stop-color="#808080"/>
<stop offset="0.7169" stop-color="#929292"/>
<stop offset="0.7695" stop-color="#8B8B8B"/>
<stop offset="0.845" stop-color="#787878"/>
<stop offset="0.9338" stop-color="#595959"/>
<stop offset="0.9762" stop-color="#484848"/>
</linearGradient>
<linearGradient id="paint8_linear_359_1213" x1="7.80817" y1="87.0991" x2="166.122" y2="87.0991" gradientUnits="userSpaceOnUse">
<stop stop-color="#666666"/>
<stop offset="0.1508" stop-color="#8D8D8D"/>
<stop offset="0.1849" stop-color="#7C7C7C"/>
<stop offset="0.2399" stop-color="#686868"/>
<stop offset="0.2942" stop-color="#5B5B5B"/>
<stop offset="0.3466" stop-color="#575757"/>
<stop offset="0.4374" stop-color="#5C5C5C"/>
<stop offset="0.5405" stop-color="#696969"/>
<stop offset="0.6491" stop-color="#808080"/>
<stop offset="0.7169" stop-color="#929292"/>
<stop offset="0.7695" stop-color="#8B8B8B"/>
<stop offset="0.845" stop-color="#787878"/>
<stop offset="0.9338" stop-color="#595959"/>
<stop offset="0.9762" stop-color="#484848"/>
</linearGradient>
<linearGradient id="paint9_linear_359_1213" x1="2.21001e-05" y1="91.2076" x2="166.536" y2="91.2076" gradientUnits="userSpaceOnUse">
<stop stop-color="#666666"/>
<stop offset="0.1508" stop-color="#8D8D8D"/>
<stop offset="0.1849" stop-color="#7C7C7C"/>
<stop offset="0.2399" stop-color="#686868"/>
<stop offset="0.2942" stop-color="#5B5B5B"/>
<stop offset="0.3466" stop-color="#575757"/>
<stop offset="0.4374" stop-color="#5C5C5C"/>
<stop offset="0.5405" stop-color="#696969"/>
<stop offset="0.6491" stop-color="#808080"/>
<stop offset="0.7169" stop-color="#929292"/>
<stop offset="0.7695" stop-color="#8B8B8B"/>
<stop offset="0.845" stop-color="#787878"/>
<stop offset="0.9338" stop-color="#595959"/>
<stop offset="0.9762" stop-color="#484848"/>
</linearGradient>
<linearGradient id="paint10_linear_359_1213" x1="8.05164e-05" y1="8.82356" x2="166.538" y2="8.82356" gradientUnits="userSpaceOnUse">
<stop stop-color="#666666"/>
<stop offset="0.1508" stop-color="#8D8D8D"/>
<stop offset="0.1849" stop-color="#7C7C7C"/>
<stop offset="0.2399" stop-color="#686868"/>
<stop offset="0.2942" stop-color="#5B5B5B"/>
<stop offset="0.3466" stop-color="#575757"/>
<stop offset="0.4374" stop-color="#5C5C5C"/>
<stop offset="0.5405" stop-color="#696969"/>
<stop offset="0.6491" stop-color="#808080"/>
<stop offset="0.7169" stop-color="#929292"/>
<stop offset="0.7695" stop-color="#8B8B8B"/>
<stop offset="0.845" stop-color="#787878"/>
<stop offset="0.9338" stop-color="#595959"/>
<stop offset="0.9762" stop-color="#484848"/>
</linearGradient>
</defs>
</svg>

<?xml version="1.0" encoding="utf-8"?>
<!-- Generator: Adobe Illustrator 24.3.0, SVG Export Plug-In . SVG Version: 6.00 Build 0)  -->
<svg version="1.1" id="圖層_1" xmlns="http://www.w3.org/2000/svg" xmlns:xlink="http://www.w3.org/1999/xlink" x="0px" y="0px"
	 viewBox="0 0 167 167" style="enable-background:new 0 0 167 167;" xml:space="preserve">
<style type="text/css">
	.st0{fill:none;stroke:url(#SVGID_1_);stroke-width:2;stroke-linecap:round;stroke-miterlimit:10;}
	.st1{fill:none;stroke:url(#SVGID_2_);stroke-linecap:round;stroke-miterlimit:10;}
	.st2{fill:none;stroke:url(#SVGID_3_);stroke-linecap:round;stroke-miterlimit:10;}
	.st3{fill:none;stroke:url(#SVGID_4_);stroke-linecap:round;stroke-miterlimit:10;}
	.st4{fill:none;stroke:url(#SVGID_5_);stroke-linecap:round;stroke-miterlimit:10;}
	.st5{fill:none;stroke:url(#SVGID_6_);stroke-linecap:round;stroke-miterlimit:10;}
	.st6{fill:none;stroke:url(#SVGID_7_);stroke-linecap:round;stroke-miterlimit:10;}
	.st7{fill:none;stroke:url(#SVGID_8_);stroke-linecap:round;stroke-miterlimit:10;}
	.st8{fill:none;stroke:url(#SVGID_9_);stroke-width:2;stroke-linecap:round;stroke-miterlimit:10;}
	.st9{fill:none;stroke:url(#SVGID_10_);stroke-width:2;stroke-linecap:round;stroke-miterlimit:10;}
	.st10{fill:none;stroke:url(#SVGID_11_);stroke-width:2;stroke-linecap:round;stroke-miterlimit:10;}
</style>
<g>
	
		<linearGradient id="SVGID_1_" gradientUnits="userSpaceOnUse" x1="7.812" y1="85.3566" x2="148.696" y2="85.3566" gradientTransform="matrix(1 0 0 -1 0 168)">
		<stop  offset="0" style="stop-color:#666666"/>
		<stop  offset="0.1508" style="stop-color:#8D8D8D"/>
		<stop  offset="0.1849" style="stop-color:#7C7C7C"/>
		<stop  offset="0.2399" style="stop-color:#686868"/>
		<stop  offset="0.2942" style="stop-color:#5B5B5B"/>
		<stop  offset="0.3466" style="stop-color:#575757"/>
		<stop  offset="0.4374" style="stop-color:#5C5C5C"/>
		<stop  offset="0.5405" style="stop-color:#696969"/>
		<stop  offset="0.6491" style="stop-color:#808080"/>
		<stop  offset="0.7169" style="stop-color:#929292"/>
		<stop  offset="0.7695" style="stop-color:#8B8B8B"/>
		<stop  offset="0.845" style="stop-color:#787878"/>
		<stop  offset="0.9338" style="stop-color:#595959"/>
		<stop  offset="0.9762" style="stop-color:#484848"/>
	</linearGradient>
	<path class="st0" d="M147.7,8.8H8.8v147.6"/>
	
		<linearGradient id="SVGID_2_" gradientUnits="userSpaceOnUse" x1="16.1204" y1="134.8823" x2="50.0297" y2="134.8823" gradientTransform="matrix(1 0 0 -1 0 168)">
		<stop  offset="0" style="stop-color:#666666"/>
		<stop  offset="0.1508" style="stop-color:#8D8D8D"/>
		<stop  offset="0.1849" style="stop-color:#7C7C7C"/>
		<stop  offset="0.2399" style="stop-color:#686868"/>
		<stop  offset="0.2942" style="stop-color:#5B5B5B"/>
		<stop  offset="0.3466" style="stop-color:#575757"/>
		<stop  offset="0.4374" style="stop-color:#5C5C5C"/>
		<stop  offset="0.5405" style="stop-color:#696969"/>
		<stop  offset="0.6491" style="stop-color:#808080"/>
		<stop  offset="0.7169" style="stop-color:#929292"/>
		<stop  offset="0.7695" style="stop-color:#8B8B8B"/>
		<stop  offset="0.845" style="stop-color:#787878"/>
		<stop  offset="0.9338" style="stop-color:#595959"/>
		<stop  offset="0.9762" style="stop-color:#484848"/>
	</linearGradient>
	<path class="st1" d="M16.6,16.6l32.9,32.9"/>
	
		<linearGradient id="SVGID_3_" gradientUnits="userSpaceOnUse" x1="16.1204" y1="139.1338" x2="60.3973" y2="139.1338" gradientTransform="matrix(1 0 0 -1 0 168)">
		<stop  offset="0" style="stop-color:#666666"/>
		<stop  offset="0.1508" style="stop-color:#8D8D8D"/>
		<stop  offset="0.1849" style="stop-color:#7C7C7C"/>
		<stop  offset="0.2399" style="stop-color:#686868"/>
		<stop  offset="0.2942" style="stop-color:#5B5B5B"/>
		<stop  offset="0.3466" style="stop-color:#575757"/>
		<stop  offset="0.4374" style="stop-color:#5C5C5C"/>
		<stop  offset="0.5405" style="stop-color:#696969"/>
		<stop  offset="0.6491" style="stop-color:#808080"/>
		<stop  offset="0.7169" style="stop-color:#929292"/>
		<stop  offset="0.7695" style="stop-color:#8B8B8B"/>
		<stop  offset="0.845" style="stop-color:#787878"/>
		<stop  offset="0.9338" style="stop-color:#595959"/>
		<stop  offset="0.9762" style="stop-color:#484848"/>
	</linearGradient>
	<path class="st2" d="M16.6,16.6l43.3,24.4"/>
	
		<linearGradient id="SVGID_4_" gradientUnits="userSpaceOnUse" x1="16.1204" y1="143.2396" x2="71.347" y2="143.2396" gradientTransform="matrix(1 0 0 -1 0 168)">
		<stop  offset="0" style="stop-color:#666666"/>
		<stop  offset="0.1508" style="stop-color:#8D8D8D"/>
		<stop  offset="0.1849" style="stop-color:#7C7C7C"/>
		<stop  offset="0.2399" style="stop-color:#686868"/>
		<stop  offset="0.2942" style="stop-color:#5B5B5B"/>
		<stop  offset="0.3466" style="stop-color:#575757"/>
		<stop  offset="0.4374" style="stop-color:#5C5C5C"/>
		<stop  offset="0.5405" style="stop-color:#696969"/>
		<stop  offset="0.6491" style="stop-color:#808080"/>
		<stop  offset="0.7169" style="stop-color:#929292"/>
		<stop  offset="0.7695" style="stop-color:#8B8B8B"/>
		<stop  offset="0.845" style="stop-color:#787878"/>
		<stop  offset="0.9338" style="stop-color:#595959"/>
		<stop  offset="0.9762" style="stop-color:#484848"/>
	</linearGradient>
	<path class="st3" d="M16.6,16.6l54.2,16.2"/>
	
		<linearGradient id="SVGID_5_" gradientUnits="userSpaceOnUse" x1="16.1204" y1="147.2952" x2="84.9464" y2="147.2952" gradientTransform="matrix(1 0 0 -1 0 168)">
		<stop  offset="0" style="stop-color:#666666"/>
		<stop  offset="0.1508" style="stop-color:#8D8D8D"/>
		<stop  offset="0.1849" style="stop-color:#7C7C7C"/>
		<stop  offset="0.2399" style="stop-color:#686868"/>
		<stop  offset="0.2942" style="stop-color:#5B5B5B"/>
		<stop  offset="0.3466" style="stop-color:#575757"/>
		<stop  offset="0.4374" style="stop-color:#5C5C5C"/>
		<stop  offset="0.5405" style="stop-color:#696969"/>
		<stop  offset="0.6491" style="stop-color:#808080"/>
		<stop  offset="0.7169" style="stop-color:#929292"/>
		<stop  offset="0.7695" style="stop-color:#8B8B8B"/>
		<stop  offset="0.845" style="stop-color:#787878"/>
		<stop  offset="0.9338" style="stop-color:#595959"/>
		<stop  offset="0.9762" style="stop-color:#484848"/>
	</linearGradient>
	<path class="st4" d="M16.6,16.6l67.8,8.1"/>
	
		<linearGradient id="SVGID_6_" gradientUnits="userSpaceOnUse" x1="16.1204" y1="129.8015" x2="41.2378" y2="129.8015" gradientTransform="matrix(1 0 0 -1 0 168)">
		<stop  offset="0" style="stop-color:#666666"/>
		<stop  offset="0.1508" style="stop-color:#8D8D8D"/>
		<stop  offset="0.1849" style="stop-color:#7C7C7C"/>
		<stop  offset="0.2399" style="stop-color:#686868"/>
		<stop  offset="0.2942" style="stop-color:#5B5B5B"/>
		<stop  offset="0.3466" style="stop-color:#575757"/>
		<stop  offset="0.4374" style="stop-color:#5C5C5C"/>
		<stop  offset="0.5405" style="stop-color:#696969"/>
		<stop  offset="0.6491" style="stop-color:#808080"/>
		<stop  offset="0.7169" style="stop-color:#929292"/>
		<stop  offset="0.7695" style="stop-color:#8B8B8B"/>
		<stop  offset="0.845" style="stop-color:#787878"/>
		<stop  offset="0.9338" style="stop-color:#595959"/>
		<stop  offset="0.9762" style="stop-color:#484848"/>
	</linearGradient>
	<path class="st5" d="M16.6,16.6l24.1,43.1"/>
	
		<linearGradient id="SVGID_7_" gradientUnits="userSpaceOnUse" x1="16.1204" y1="123.771" x2="32.7571" y2="123.771" gradientTransform="matrix(1 0 0 -1 0 168)">
		<stop  offset="0" style="stop-color:#666666"/>
		<stop  offset="0.1508" style="stop-color:#8D8D8D"/>
		<stop  offset="0.1849" style="stop-color:#7C7C7C"/>
		<stop  offset="0.2399" style="stop-color:#686868"/>
		<stop  offset="0.2942" style="stop-color:#5B5B5B"/>
		<stop  offset="0.3466" style="stop-color:#575757"/>
		<stop  offset="0.4374" style="stop-color:#5C5C5C"/>
		<stop  offset="0.5405" style="stop-color:#696969"/>
		<stop  offset="0.6491" style="stop-color:#808080"/>
		<stop  offset="0.7169" style="stop-color:#929292"/>
		<stop  offset="0.7695" style="stop-color:#8B8B8B"/>
		<stop  offset="0.845" style="stop-color:#787878"/>
		<stop  offset="0.9338" style="stop-color:#595959"/>
		<stop  offset="0.9762" style="stop-color:#484848"/>
	</linearGradient>
	<path class="st6" d="M16.6,16.6l15.6,55.2"/>
	
		<linearGradient id="SVGID_8_" gradientUnits="userSpaceOnUse" x1="16.1204" y1="117.3133" x2="25.1696" y2="117.3133" gradientTransform="matrix(1 0 0 -1 0 168)">
		<stop  offset="0" style="stop-color:#666666"/>
		<stop  offset="0.1508" style="stop-color:#8D8D8D"/>
		<stop  offset="0.1849" style="stop-color:#7C7C7C"/>
		<stop  offset="0.2399" style="stop-color:#686868"/>
		<stop  offset="0.2942" style="stop-color:#5B5B5B"/>
		<stop  offset="0.3466" style="stop-color:#575757"/>
		<stop  offset="0.4374" style="stop-color:#5C5C5C"/>
		<stop  offset="0.5405" style="stop-color:#696969"/>
		<stop  offset="0.6491" style="stop-color:#808080"/>
		<stop  offset="0.7169" style="stop-color:#929292"/>
		<stop  offset="0.7695" style="stop-color:#8B8B8B"/>
		<stop  offset="0.845" style="stop-color:#787878"/>
		<stop  offset="0.9338" style="stop-color:#595959"/>
		<stop  offset="0.9762" style="stop-color:#484848"/>
	</linearGradient>
	<path class="st7" d="M16.6,16.6l8,68.1"/>
	
		<linearGradient id="SVGID_9_" gradientUnits="userSpaceOnUse" x1="7.812" y1="80.8991" x2="166.119" y2="80.8991" gradientTransform="matrix(1 0 0 -1 0 168)">
		<stop  offset="0" style="stop-color:#666666"/>
		<stop  offset="0.1508" style="stop-color:#8D8D8D"/>
		<stop  offset="0.1849" style="stop-color:#7C7C7C"/>
		<stop  offset="0.2399" style="stop-color:#686868"/>
		<stop  offset="0.2942" style="stop-color:#5B5B5B"/>
		<stop  offset="0.3466" style="stop-color:#575757"/>
		<stop  offset="0.4374" style="stop-color:#5C5C5C"/>
		<stop  offset="0.5405" style="stop-color:#696969"/>
		<stop  offset="0.6491" style="stop-color:#808080"/>
		<stop  offset="0.7169" style="stop-color:#929292"/>
		<stop  offset="0.7695" style="stop-color:#8B8B8B"/>
		<stop  offset="0.845" style="stop-color:#787878"/>
		<stop  offset="0.9338" style="stop-color:#595959"/>
		<stop  offset="0.9762" style="stop-color:#484848"/>
	</linearGradient>
	<path class="st8" d="M8.8,165.4v-15.7c0-77.8,63-140.9,140.7-140.9h15.6"/>
	
		<linearGradient id="SVGID_10_" gradientUnits="userSpaceOnUse" x1="3.659964e-03" y1="76.7918" x2="166.5396" y2="76.7918" gradientTransform="matrix(1 0 0 -1 0 168)">
		<stop  offset="0" style="stop-color:#666666"/>
		<stop  offset="0.1508" style="stop-color:#8D8D8D"/>
		<stop  offset="0.1849" style="stop-color:#7C7C7C"/>
		<stop  offset="0.2399" style="stop-color:#686868"/>
		<stop  offset="0.2942" style="stop-color:#5B5B5B"/>
		<stop  offset="0.3466" style="stop-color:#575757"/>
		<stop  offset="0.4374" style="stop-color:#5C5C5C"/>
		<stop  offset="0.5405" style="stop-color:#696969"/>
		<stop  offset="0.6491" style="stop-color:#808080"/>
		<stop  offset="0.7169" style="stop-color:#929292"/>
		<stop  offset="0.7695" style="stop-color:#8B8B8B"/>
		<stop  offset="0.845" style="stop-color:#787878"/>
		<stop  offset="0.9338" style="stop-color:#595959"/>
		<stop  offset="0.9762" style="stop-color:#484848"/>
	</linearGradient>
	<path class="st9" d="M1,28.4v129.1l7.8,7.8l7.8-7.8V16.6h-3.8C6.3,16.6,1,21.9,1,28.4z"/>
	
		<linearGradient id="SVGID_11_" gradientUnits="userSpaceOnUse" x1="8.051640e-05" y1="159.1753" x2="166.538" y2="159.1753" gradientTransform="matrix(1 0 0 -1 0 168)">
		<stop  offset="0" style="stop-color:#666666"/>
		<stop  offset="0.1508" style="stop-color:#8D8D8D"/>
		<stop  offset="0.1849" style="stop-color:#7C7C7C"/>
		<stop  offset="0.2399" style="stop-color:#686868"/>
		<stop  offset="0.2942" style="stop-color:#5B5B5B"/>
		<stop  offset="0.3466" style="stop-color:#575757"/>
		<stop  offset="0.4374" style="stop-color:#5C5C5C"/>
		<stop  offset="0.5405" style="stop-color:#696969"/>
		<stop  offset="0.6491" style="stop-color:#808080"/>
		<stop  offset="0.7169" style="stop-color:#929292"/>
		<stop  offset="0.7695" style="stop-color:#8B8B8B"/>
		<stop  offset="0.845" style="stop-color:#787878"/>
		<stop  offset="0.9338" style="stop-color:#595959"/>
		<stop  offset="0.9762" style="stop-color:#484848"/>
	</linearGradient>
	<path class="st10" d="M165.1,8.8L157.3,1H28.4c-6.5,0-11.8,5.3-11.8,11.8v3.8h140.7L165.1,8.8z"/>
</g>
</svg>
